!!!!SEGMENT: pl-wn--sd-xvi-qu-273--095_gomolka-mikolaj--podzmy-z-ochota-panu-chwale-dajmy.krn
!!!cenid: 15xx:300
!!!COM: Gomółka, Mikołaj
!!!COM-rismid: pe30013343
!!!CDT: ~1535->1591/04/30
!!!CNT: Polish
!!!GTL: Melodiae na psalterz polski
!!!OTL: XCV. Pódźmy z ochotą, Panu chwałę dajmy
!!!ONB: PALM XCV. Venite exultemus Domino: iubilemus Deo salutari nostro. Praeoccupemus faciem eius in confesione: et in psalmis iubilemus ei.
!!!PDT: 1580
!!!AGN: Sacred
!!!SMS-siglum: PL-Wn
!!!SMS-shelfmark: SD XVI.Qu.273
!!!SMS-shelfwork: 095 G
!!!NIFC-rismid:
!!!ONB-nifc: Melodiae na psalterz polski
**kern	**text	**kern	**text	**kern	**text	**kern	**text
*part4	*part4	*part3	*part3	*part2	*part2	*part1	*part1
*staff4	*staff4	*staff3	*staff3	*staff2	*staff2	*staff1	*staff1
*clefF3	*	*clefC3	*	*clefC2	*	*clefG2	*
*k[]	*	*k[]	*	*k[]	*	*k[]	*
*f:	*	*f:	*	*f:	*	*f:	*
*M2/1	*	*M2/1	*	*M2/1	*	*M2/1	*
*met(C|)	*	*met(C|)	*	*met(C|)	*	*met(C|)	*
*I"BASSUS.	*	*I"TENOR.	*	*I"ALTUS.	*	*I"CANTUS.	*
=1-	=1	=1-	=1	=1-	=1	=1-	=1
2.G\	PÓdź-	2.B/	PÓdź-	2.d/	PÓdź-	2.g/	PÓdź-
4E/	.	4e\	-my	4g\	-my	4g/	-my
4F/	-my	4d\	z o-	4f\	z o-	4a/	z o-
4G\	.	4d\	-cho-	4d/	.	4b/	-cho-
2E/	z o-	2c/	-tą,	2e/	-cho-	2cc\	-tą,
=2-	=2	=2-	=2	=2-	=2	=2-	=2
2.c\	-cho-	2.e\	pá-	1e\	-tą	1cc\	pá--
4B\	-tą,	4d\	.	.	.	.	.
2.A\	pá-	2.c/	-nu	2.f\	pá-	1cc\	-nu
4G\	-nu	4B/	.	4e/	-nu	.	.
=3-	=3	=3-	=3	=3-	=3	=3-	=3
2.F/	chwa-	4A/	chwa-	2.a\	chwa-	1ff\	chwa-
.	.	4B/	.	.	.	.	.
.	.	1c\	-łę	.	.	.	.
4E/	-łę	.	.	4g\	-łę	.	.
2D/	day-	.	.	2f\	day-	2ff\	-łę
2D/	.	2B/	day-	2f\	-my,	4ee\	day-
.	.	.	.	.	.	4dd\	.
=4-	=4	=4-	=4	=4-	=4	=4-	=4
2C/	-my,	2c/	-my,	2g\	.	2ee\	-my,
4r	.	4r	.	4r	.	4r	.
4c\	I	4e\	I	4cc\	I	4ee\	I
4d\	ie-	4f\	ie-	4a\	ie-	4dd\	ie-
4D/	-go	4f\	-go	4a\	-go	4dd\	-go
2A\	łá-	4.e\	łá-	2a\	łá-	2cc\	łá-
.	.	8f\	.	.	.	.	.
=5-	=5	=5-	=5	=5-	=5	=5-	=5
4.G\	-skę	2g\	-skę	2.d/	-skę	2b/	-skę
8A\	.	.	.	.	.	.	.
4B\	wie-	2g\	wie-	.	.	2b/	wie-
4c\	.	.	.	4e/	wie-	.	.
!!LO:PB:g=original
2d\	-czną	2f\	-czną	2f\	-czną	2a/	-czną
1c\	wyz-	2e\	wyz-	1c/	wyz-	2.a/	wyz-
=6-	=6	=6-	=6	=6-	=6	=6-	=6
.	.	2d\	-na-	.	.	.	.
.	.	.	.	.	.	4g/	.
2B\	-na-	2d\	-(way-	2d/	-na-	1g/	-na-
1A\	-(way-	1c\	.	2e/	-(way-	.	.
.	.	.	.	4d/	.	2f/	-(way-
.	.	.	.	4c/	.	.	.
=7-	=7	=7-	=7	=7-	=7	=7-	=7
2G\	-my.)	2d\	-my.)	2B/	-my.)	2g/	-my.)
4r	.	4r	.	4r	.	4r	.
4C/	Staw-	4c/	Staw-	4e/	Staw-	4g/	Staw-
2C/	-my	2c/	-my	2e/	-my	2g/	-my
2C/	sye	2c/	sye	2e/	sye	2g/	sye
=8-	=8	=8-	=8	=8-	=8	=8-	=8
1F\	przed	1c/	przed	1f\	przed	1a/	przed
2C/	nim:	2c/	nim:	2e/	nim:	2g/	nim:
2G\	zbaw-	2d\	zbaw-	2g\	zbaw-	2b/	zbaw-
=9-	=9	=9-	=9	=9-	=9	=9-	=9
2E/	-cą	2.e\	-cą	2g\	-cą	2b/	-cą
4c\	wszech	.	.	4a\	wszech	2cc\	wszech
4B\	.	4d\	wszech	4g\	.	.	.
4A\	tru-	4c/	tru-	4f\	tru-	2cc\	tru-
4G\	.	4B/	.	2g\	-(dno-	.	.
2A\	-(dno-	4d\	-(dno-	.	.	4b/	-(dno-
.	.	4c/	.	4f\	.	4a/	.
=10-	=10	=10-	=10	=10-	=10	=10-	=10
2G\	-ci)	4d\	-ści)	4g\	-ści)	4b/	-ści)
.	.	4c/	.	4f\	.	4a/	.
2G\	Sźá-	4d\	Szá-	2g\	Szá-	4b/	Szá-
.	.	4e\	.	.	.	4cc\	.
2.D/	-fa-	4f\	-fa-	4a\	-fá-	4dd\	-fá-
.	.	4e\	.	4g\	.	4cc\	.
.	.	4f\	-rzem	4a\	-rzem	4dd\	-rzem
4G\	-rzem	4g\	.	4b\	.	4ee\	.
=11-	=11	=11-	=11	=11-	=11	=11-	=11
!!LO:PB:g=original
4F/	zdro-	1a\	zdro-	1cc\	zdro-	1ff\	zdro-
4G\	.	.	.	.	.	.	.
4A\	-wia,	.	.	.	.	.	.
4B\	.	.	.	.	.	.	.
2c\	y	2g\	-wia,	2cc\	-wia,	2ee\	-wia
2C/	trwá-	2g\	y	2cc\	y	2ee\	y
=12-	=12	=12-	=12	=12-	=12	=12-	=12
2G\	-(łych)	2g\	trwá-	2b\	trwá-	2dd\	trwá-
4D/	rá-	2f\	-(łych)	2a\	-(łych)	2dd\	-(łych)
4E/	-do-	.	.	.	.	.	.
4F/	-(śći.)	2f\	rá-	2a\	rá-	2cc\	rá-
4G\	Spiesz-	.	.	.	.	.	.
2A\	-(my)	4e\	-do-	2a\	-do-	2cc\	-(do-
.	.	4f\	.	.	.	.	.
=13-	=13	=13-	=13	=13-	=13	=13-	=13
2G\	sye	2g\	-(śći.)	2d/	-(śći.)	2b/	-śći.)
4r	.	4r	.	4r	.	4r	.
4E/	k nie-	4B/	Spiesz-	4e/	Spiesz-	4g/	Spiesz-
4A\	-(mu)	4c/	-(my)	4f\	-(my)	4a/	-(my)
4G\	spiesz-	2d\	sye	2g\	sye	4b/	sye
2A\	-(my)	.	.	.	.	2cc\	k nie-
.	.	4c/	k nie-	4f\	k nie-	.	.
=14-	=14	=14-	=14	=14-	=14	=14-	=14
2G\	sye	4d\	-(mu,)	4g\	-(mu,)	4b/	-(mu,)
.	.	4e\	spiesz-	4a\	spiesz-	4cc\	spiesz-
2r	.	4f\	-my	4b\	-(my)	4dd\	-(my)
.	.	4g\	sye	4cc\	sye	4ee\	sye
2.F\	z dźię-	2.a\	z dźię-	2cc\	z dźię-	1.1ff\	z dźię-
.	.	.	.	.	.	.	.
.	.	.	.	1cc\	-(ka-	.	.
4E/	.	4g\	.	.	.	.	.
=15-	=15	=15-	=15	=15-	=15	=15-	=15
1D/	-(ka-	1f\	-(ka-	.	.	.	.
.	.	.	.	2b\	.	2dd\	-(ka-
2C/	-mi)	2g\	-mi)	2cc\	-mi)	2ee\	-mi)
2c\	I	2e\	I	2g\	I	2ee\	I
=16-	=16	=16-	=16	=16-	=16	=16-	=16
2A\	z wdźię-	2e\	z wdźię-	2a\	z wdźię-	2cc\	z wdźię-
2A\	-cznym	2e\	-cznym	2a\	-cznym	2cc#X\	-cznym
!!LO:PB:g=original
2d\	lu-	1f#X\	lu-	1a\	lu-	2.dd\	lu-
2D/	-teń	.	.	.	.	.	.
.	.	.	.	.	.	4cc#\	-teń
=17-	=17	=17-	=17	=17-	=17	=17-	=17
4G\	.	2.g\	-teń	2d/	-teń	2b/	dźwię-
4F\	dźwię-	.	.	.	.	.	.
4E/	.	.	.	4e/	.	2.ee\	-kiem,
4D/	.	4e\	.	4f\	dźwię-	.	.
2C/	.	2e\	dźwię-	2g\	.	.	.
.	.	.	.	.	.	4dd\	.
2c\	-kiem,	2e\	-kiem	4a\	.	4ccny\	.
.	.	.	.	4g\	-kiem,	4b\	.
=18-	=18	=18-	=18	=18-	=18	=18-	=18
4F\	y	4fny\	.	4.cc\	.	4a/	y
4G\	.	2e\	.	.	.	4b/	.
.	.	.	.	8b\	.	.	.
4A\	z pie-	.	.	4a\	y	4cc\	z pie-
4F\	.	4f\	y	4a\	.	4a/	.
4G\	.	4d\	z pie-	4g\	z pie-	4b/	-śniá-
4A\	.	4c\	-śniá-	4f\	.	2cc\	.
2G\	-śniá-	2d\	-mi.	4.g\	-śniá-	.	.
.	.	.	.	.	.	4b\	-mi.
.	.	.	.	8f\	-mi.	.	.
=19-	=19	=19-	=19	=19-	=19	=19-	=19
000C/	-mi.	000c\	.	000e\	.	000cc\	.
==	==	==	==	==	==	==	==
*-	*-	*-	*-	*-	*-	*-	*-
!!!RDF**kern: l = terminal long
!!!system-decoration: s1,s2,s3,s4
!!!ENC: Marta Lawrence
!!!END: 2020-02-15
!!!URL-scan: https://polona.pl/item/melodiae-na-psalterz-polski,Nzk3MTM4ODQ/222 Scan on Polona
!!!IIIF: https://polona.pl/iiif/item/Nzk3MTM4ODQ/manifest.json
